scalable/apps/accessories-dictionary.svg

<?xml version="1.0" encoding="UTF-8" standalone="no"?>
<!-- Generator: Adobe Illustrator 19.0.0, SVG Export Plug-In . SVG Version: 6.00 Build 0)  -->

<svg
   xmlns:dc="http://purl.org/dc/elements/1.1/"
   xmlns:cc="http://creativecommons.org/ns#"
   xmlns:rdf="http://www.w3.org/1999/02/22-rdf-syntax-ns#"
   xmlns:svg="http://www.w3.org/2000/svg"
   xmlns="http://www.w3.org/2000/svg"
   xmlns:xlink="http://www.w3.org/1999/xlink"
   xmlns:sodipodi="http://sodipodi.sourceforge.net/DTD/sodipodi-0.dtd"
   xmlns:inkscape="http://www.inkscape.org/namespaces/inkscape"
   version="1.1"
   id="Capa_1"
   x="0px"
   y="0px"
   viewBox="0 0 48 48"
   xml:space="preserve"
   sodipodi:docname="accessories-dictionary.svg"
   width="48"
   height="48"
   inkscape:version="0.92.3 (2405546, 2018-03-11)"><metadata
   id="metadata41"><rdf:RDF><cc:Work
       rdf:about=""><dc:format>image/svg+xml</dc:format><dc:type
         rdf:resource="http://purl.org/dc/dcmitype/StillImage" /><dc:title /></cc:Work></rdf:RDF></metadata><defs
   id="defs39"><linearGradient
     inkscape:collect="always"
     id="linearGradient902"><stop
       style="stop-color:#000000;stop-opacity:1;"
       offset="0"
       id="stop898" /><stop
       style="stop-color:#000000;stop-opacity:0;"
       offset="1"
       id="stop900" /></linearGradient><linearGradient
     inkscape:collect="always"
     id="linearGradient858"><stop
       style="stop-color:#ffffff;stop-opacity:1;"
       offset="0"
       id="stop854" /><stop
       id="stop862"
       offset="0.66749513"
       style="stop-color:#999999;stop-opacity:1" /><stop
       style="stop-color:#ffffff;stop-opacity:1"
       offset="1"
       id="stop856" /></linearGradient><linearGradient
     inkscape:collect="always"
     xlink:href="#linearGradient858"
     id="linearGradient860"
     x1="8.2646485"
     y1="17.996983"
     x2="23.237304"
     y2="17.996983"
     gradientUnits="userSpaceOnUse" /><linearGradient
     gradientTransform="matrix(-1,0,0,1,47.689451,1.9999998e-8)"
     inkscape:collect="always"
     xlink:href="#linearGradient858"
     id="linearGradient860-3"
     x1="8.2646484"
     y1="17.996983"
     x2="23.237305"
     y2="17.996983"
     gradientUnits="userSpaceOnUse" /><linearGradient
     inkscape:collect="always"
     xlink:href="#linearGradient902"
     id="linearGradient904"
     x1="7.1058826"
     y1="7.2705884"
     x2="43.905884"
     y2="44.541176"
     gradientUnits="userSpaceOnUse" /></defs><sodipodi:namedview
   pagecolor="#ffffff"
   bordercolor="#666666"
   borderopacity="1"
   objecttolerance="10"
   gridtolerance="10"
   guidetolerance="10"
   inkscape:pageopacity="0"
   inkscape:pageshadow="2"
   inkscape:window-width="1366"
   inkscape:window-height="719"
   id="namedview37"
   showgrid="false"
   showguides="true"
   inkscape:guide-bbox="true"
   inkscape:zoom="2.65625"
   inkscape:cx="24"
   inkscape:cy="24"
   inkscape:window-x="0"
   inkscape:window-y="25"
   inkscape:window-maximized="1"
   inkscape:current-layer="Capa_1"
   inkscape:snap-smooth-nodes="true" />


<g
   id="g6"
   transform="translate(0,-464)">
</g>
<g
   id="g8"
   transform="translate(0,-464)">
</g>
<g
   id="g10"
   transform="translate(0,-464)">
</g>
<g
   id="g12"
   transform="translate(0,-464)">
</g>
<g
   id="g14"
   transform="translate(0,-464)">
</g>
<g
   id="g16"
   transform="translate(0,-464)">
</g>
<g
   id="g18"
   transform="translate(0,-464)">
</g>
<g
   id="g20"
   transform="translate(0,-464)">
</g>
<g
   id="g22"
   transform="translate(0,-464)">
</g>
<g
   id="g24"
   transform="translate(0,-464)">
</g>
<g
   id="g26"
   transform="translate(0,-464)">
</g>
<g
   id="g28"
   transform="translate(0,-464)">
</g>
<g
   id="g30"
   transform="translate(0,-464)">
</g>
<g
   id="g32"
   transform="translate(0,-464)">
</g>
<g
   id="g34"
   transform="translate(0,-464)">
</g>
<g
   id="g935"><path
     id="path852"
     d="m 24.000976,0.3457035 c -5.833461,0 -10.522198,1.1203776 -13.935546,3.3320313 -4.1011933,2.6574037 -6.2695315,6.9015122 -6.2695315,12.2714832 0,7.226706 5.8062658,16.88549 7.5859375,19.673828 2.031747,3.183082 4.250107,6.079783 6.246093,8.15625 2.542362,2.644284 4.56815,3.875 6.373047,3.875 1.804991,0 3.829009,-1.230625 6.371093,-3.875 1.995894,-2.076376 4.214349,-4.973077 6.246094,-8.15625 C 38.397835,32.8348 44.204101,23.175924 44.204101,15.949219 44.204193,10.57934 42.037899,6.3352307 37.936523,3.6777348 34.523359,1.4660811 29.834346,0.3457035 24.000976,0.3457035 Z"
     style="fill:#338000;stroke-width:0.0924025" /><path
     inkscape:connector-curvature="0"
     id="path896"
     d="m 27.132812,46.521484 c 0.993238,-0.637036 2.048833,-1.504877 3.238282,-2.742187 1.995894,-2.076377 4.214348,-4.973078 6.246094,-8.15625 0.889835,-1.394123 2.786911,-4.505287 4.460937,-8.171875 0.837013,-1.833294 1.619261,-3.806143 2.191406,-5.771484 0.572145,-1.965342 0.933594,-3.923793 0.933594,-5.730469 2.1e-5,-1.216508 -0.145579,-2.355575 -0.365234,-3.451172 L 39.058594,7.7167969 25.693359,11.669922 21.458984,7.4355469 9.068359,27.777344 8.046875,27.435547 Z"
     style="fill:url(#linearGradient904);fill-opacity:1;stroke:none;stroke-width:1px;stroke-linecap:butt;stroke-linejoin:miter;stroke-opacity:1" /><path
     id="path850"
     d="m 16.083008,5.1210941 c 2.428841,-0.015756 4.914297,1.0314613 6.937499,4.2695313 L 23.237304,30.873046 C 21.389157,26.277549 16.027673,23.486869 9.6416016,27.408203 9.4508466,27.525336 9.2599009,27.648098 9.0673829,27.777343 8.4507389,28.113722 8.2756085,27.456584 8.2646485,26.865234 L 8.3388672,9.4335941 c 0.018431,-1.288494 0.1018197,-1.558217 1.1503907,-2.203125 1.7932111,-1.0156459 4.1649091,-2.093625 6.5937501,-2.109375 z"
     style="fill:url(#linearGradient860);stroke-width:0.0924025;fill-opacity:1" /><path
     id="path850-3"
     d="m 31.606442,5.1210941 c -2.42884,-0.015756 -4.914297,1.0314613 -6.937498,4.2695313 L 24.452146,30.873047 c 1.848147,-4.595497 7.209631,-7.386177 13.595703,-3.464843 0.190755,0.117133 0.381701,0.239895 0.574219,0.36914 0.616644,0.336379 0.791774,-0.320759 0.802734,-0.912109 L 39.350582,9.4335941 c -0.01843,-1.288494 -0.101819,-1.558217 -1.15039,-2.203125 -1.793212,-1.0156459 -4.16491,-2.093625 -6.59375,-2.109375 z"
     style="fill:url(#linearGradient860-3);fill-opacity:1;stroke-width:0.0924025"
     inkscape:connector-curvature="0" /><path
     inkscape:connector-curvature="0"
     id="path879"
     d="m 3.923829,14.736329 c -0.02737,0.413032 -0.128906,0.785353 -0.128906,1.21289 0,7.226706 5.808219,16.885489 7.587889,19.673828 2.031748,3.183082 4.248156,6.079783 6.244142,8.15625 2.542362,2.644284 4.568149,3.875 6.373047,3.875 1.804991,0 3.829008,-1.230626 6.371093,-3.875 1.995895,-2.076377 4.214348,-4.973078 6.246094,-8.15625 1.779671,-2.788246 7.585937,-12.447123 7.585937,-19.673828 7e-6,-0.427554 -0.101563,-0.799842 -0.128906,-1.21289 -0.08351,1.592146 -0.311141,3.248004 -0.804688,4.94336 -0.572145,1.965341 -1.354393,3.938189 -2.191406,5.771483 -1.674026,3.666588 -3.571102,6.777752 -4.460937,8.171875 -2.031746,3.183172 -4.2502,6.079873 -6.246094,8.15625 -1.271043,1.322187 -2.411549,2.291484 -3.460938,2.929687 -1.049388,0.638205 -2.00766,0.945313 -2.910156,0.945313 -0.902449,0 -1.858349,-0.307097 -2.908203,-0.945313 C 20.041943,44.07077 18.898134,43.101439 17.626953,41.779297 15.630967,39.70283 13.41456,36.806129 11.382812,33.623047 10.492977,32.228877 8.595901,29.117748 6.921876,25.451172 6.084863,23.617884 5.302615,21.645023 4.73047,19.679689 4.236918,17.984325 4.007331,16.328487 3.923829,14.736329 Z"
     style="opacity:0.5;fill:#000000;stroke-width:0.0924025" /></g></svg>

<svg xmlns="http://www.w3.org/2000/svg" xmlns:xlink="http://www.w3.org/1999/xlink" width="48" height="48"><defs><linearGradient id="b"><stop offset="0"/><stop offset="1" stop-opacity="0"/></linearGradient><linearGradient id="a"><stop offset="0" stop-color="#fff"/><stop offset=".67" stop-color="#999"/><stop offset="1" stop-color="#fff"/></linearGradient><linearGradient xlink:href="#a" id="d" x1="8.26" y1="18" x2="23.24" y2="18" gradientUnits="userSpaceOnUse"/><linearGradient gradientTransform="matrix(-1 0 0 1 47.69 0)" xlink:href="#a" id="e" x1="8.26" y1="18" x2="23.24" y2="18" gradientUnits="userSpaceOnUse"/><linearGradient xlink:href="#b" id="c" x1="7.11" y1="7.27" x2="43.91" y2="44.54" gradientUnits="userSpaceOnUse"/></defs><path d="M24 .35c-5.83 0-10.52 1.12-13.93 3.33-4.1 2.66-6.27 6.9-6.27 12.27 0 7.23 5.8 16.88 7.58 19.67a54.48 54.48 0 0 0 6.25 8.16c2.54 2.64 4.57 3.87 6.37 3.87 1.8 0 3.83-1.23 6.37-3.87 2-2.08 4.22-4.97 6.25-8.16 1.78-2.79 7.58-12.44 7.58-19.67 0-5.37-2.16-9.61-6.26-12.27C34.52 1.47 29.84.35 24 .35z" fill="#338000"/><path d="M27.13 46.52c1-.64 2.05-1.5 3.24-2.74 2-2.08 4.22-4.97 6.25-8.16.89-1.4 2.78-4.5 4.46-8.17a43.2 43.2 0 0 0 2.19-5.77c.57-1.97.93-3.92.93-5.73 0-1.22-.14-2.36-.36-3.45l-4.78-4.78-13.37 3.95-4.23-4.23-12.4 20.34-1.01-.34z" fill="url(#c)"/><path d="M16.08 5.12c2.43-.01 4.92 1.03 6.94 4.27l.22 21.48c-1.85-4.6-7.21-7.38-13.6-3.46l-.57.37c-.62.33-.8-.32-.8-.91l.07-17.44c.02-1.28.1-1.55 1.15-2.2 1.8-1.02 4.16-2.1 6.6-2.1z" fill="url(#d)"/><path d="M31.6 5.12c-2.42-.01-4.9 1.03-6.93 4.27l-.22 21.48c1.85-4.6 7.21-7.38 13.6-3.46l.57.37c.62.33.8-.32.8-.91l-.07-17.44c-.02-1.28-.1-1.55-1.15-2.2-1.8-1.02-4.16-2.1-6.6-2.1z" fill="url(#e)"/><path d="M3.92 14.74c-.02.4-.13.78-.13 1.2 0 7.24 5.81 16.9 7.6 19.68a54.47 54.47 0 0 0 6.24 8.16c2.54 2.64 4.57 3.87 6.37 3.87 1.8 0 3.83-1.23 6.37-3.87 2-2.08 4.22-4.97 6.25-8.16 1.78-2.79 7.58-12.44 7.58-19.67 0-.43-.1-.8-.13-1.21a21.6 21.6 0 0 1-.8 4.94 43.2 43.2 0 0 1-2.2 5.77 69.59 69.59 0 0 1-4.45 8.17 54.47 54.47 0 0 1-6.25 8.16 17.98 17.98 0 0 1-3.46 2.93c-1.05.64-2 .94-2.91.94-.9 0-1.86-.3-2.9-.94-1.06-.64-2.2-1.6-3.47-2.93-2-2.08-4.22-4.97-6.25-8.16a69.6 69.6 0 0 1-4.46-8.17 43.2 43.2 0 0 1-2.19-5.77 21.6 21.6 0 0 1-.8-4.94z" opacity=".5"/></svg>
